!!!ONB: MCCC : IJH0417_03 : Extracted Monophonic Melody
!!!COM: Haydn, Joseph
!!!OPR: String Quartet in C major
!!!OMV: 3
!!!SCT: Hob.III:32 ; Op.20 No.2
!!!ODT: 1772///
**kern
*thru
*k[]
*C:
*clefG
*M3/4
2.ee
=1
4ee
4ff
4dd
=2
4dd
4ee
4gg
=3
4gg
4ff
4ee
=4
4ee
4dd
4ee
=5
2.ff[
=6
2ff]
16ff
16ee
16ff
16gg
=7
4aa
4gg
4ff
=8
4ff
4ee
4dd#
=9
2.dd#
=10
4ee
4ee
4ff#
=11
4gg
4gg
4aa
=12
4bb
4bb
4ccc
=13
4ddd
4bb
4ggg
=14
2ddd
8fff#
8ggg
=15
4ddd
4ddd
8fff#
8ggg
=16
4ddd
8eee
8fff#
8ggg
8aaa
=17
4bbb
4r
4B
=18
4c
4A
4d
=19
4G
2r
=20
2g]
4f#
=21
4f
4e
4e-
=22
4d
4g
4f#
=23
4f
4e
4e-
=24
4d
4g
4f#
=25
4f
4e
4e-
=26
4d
4g
4e-
=27
4d
2r
=28
2.ee
=29
4ee
4ff
4dd
=30
4dd
4ee
4gg
=31
4gg
4ff
4ee
=32
4ee
4dd
4ee
=33
2.ff[
=34
2ff]
16ff
16ee
16ff
16gg
=35
4aa
4gg
4ff
=36
4ff
4ee
4ff
=37
4gg
8ee
8ff
8gg
8aa
=38
4bb-
4aa
4gg
=39
4aa
4aa
4bb
=40
4ccc
4ccc
4ddd
=41
4eee
4eee
4fff
=42
4ggg
8ggg
8eee
8aaa
8fff
=43
2ggg
4cccc
=44
4ggg
4ggg
4cccc
=45
2ggg
4cc
=46
4dd
4ff
4b
=47
4cc
2r
=48
2.e[
=49
4e]
4f
4d[
=50
4d]
4e
4g[
=51
4g]
4f
4e
=52
4e
4d
4e
=53
2.f
=54
4d
4c
4d
=55
4c
2r
=56
*c:
2.g
=57
2.f[
=58
2.f]
=59
2.e-[
=60
2.e-]
=61
2.d[
=62
2.d]
=63
4e-
4cc
4b-
=64
4a-
4g
4f#
=65
4g
4G
4dd
=66
4ee-
4r
4cc
=67
4b
2r
=68
2.b-
=69
2.d-
=70
4c
4b-
4g
=71
4a-
4e
4f
=72
2.cc
=73
2.e-
=74
4d
4cc
4a
=75
4b
4f#
4g
=76
2.gg
=77
2.gg
=78
2.gg[
=79
2.gg]
=80
2.g[
=81
2.g]
=82
2.f#
=83
4g
2r
=84
4g
2r
=85
4g
2r
==
*-
